X:107
T:Chiling O Guiry. SenH.107
C:"John Casson"
C:in Hand B (Humph. Senhouse)
Q:3/8=100
M:6/8
R:
L:1/8
B:Humphrey Senhouse MS, 1747, Cumberland
Z:Village Music Project 2017 Anne Wride
K:G
"^No key sig in ms"GBB Acc | GAB cde | dBG FGA | BGG G3 :|
|: def g2g | g(a/g/f/e/) d3 | Bcd efg | fed g3 |
ccc BBB | AFA cde | dBG FGA | BGG G3 :|

